X: 21805
T: MOLLY BRALLAGHAN
O: Irish air.
Q: "Slow."
%R: air, reel
B: W. Hamilton "Universal Tune-Book" Vol. 2 Glasgow 1846 p.180 #5
S: http://s3-eu-west-1.amazonaws.com/itma.dl.printmaterial/book_pdfs/hamiltonvol2web.pdf
Z: 2016 John Chambers <jc:trillian.mit.edu>
M: C
L: 1/8
K: F
% - - - - - - - - - - - - - - - - - - - - - - - - -
f |\
BBBB BAAA | GFGA GFDE | FGFD CDFG | AFcA AGGA |\
BBBB BAAA | GFGA GFDE | FEFD CDFG | A2HG2 F2 |]
(3(cde) |\
fedc fABA | GFGA GFDE | FEFD CDFG | AFcA AGG (c/d//e//) |\
fedc fABA | GFGA GFDE | FEFD CDFG | A2HG2 F2 |]
% - - - - - - - - - - - - - - - - - - - - - - - - -

%%sep 1 1 500
%%sep 1 1 500

